TCanvas/fit3_8.svg

<svg xmlns="http://www.w3.org/2000/svg" viewBox="0 0 1200 800" preserveAspectRatio="none" width="1200" height="800">
 <path d="M0,0H1200V800H0Z" style="fill: white;"></path>
 <g>
  <g transform="translate(120,80)">
   <path d="M0,0H960V640H0Z" style="fill: white; stroke: black; stroke-width: 1;"></path>
   <svg x="0" y="0" overflow="hidden" width="960" height="640" viewBox="0 0 960 640">
    <g>
     <path d="M0,639h38v1h10v-1h10v-1h9v-1h19v-1h10v2h10v-3h9v-3h10v2h9v-3h10v-7h10v-1h9v-3h10v-6h9v-8h10v-7h19v-6h10v-22h9v-14h10v-9h10v-14h9v-1h10v-21h9v-24h10v-24h10v-15h9v-35h10v-48h9v-5h10v-23h10v-57h19v-38h9v-48h10v-16h10v-2h9v1h10v-56h9v-29h10v-11h10v-8h9v-40h10v32h9v-36h10v12h10v-3h9v16h10v-23h9v62h10v-5h10v2h9v60h10v15h9v37h10v6h10v56h9v14h10v15h9v35h10v47h10v25h9v20h10v27h9v8h10v7h10v27h9v26h10v37h9v-3h10v21h10v10h9v8h10v10h9v9h10v6h10v-1h9v7h10v1h9v7h10v4h10v-1h9v3h10v3h9v-1h10v1h10v-2h9v2h10v2h9v1h10v-2h19v1h10v1h19" style="stroke-linejoin: miter; stroke: #00009a; stroke-width: 1; fill: none;"></path>
    </g>
    <g>
     <path d="M240,559l5,-6l5,-8l5,-7l5,-8l4,-8l5,-9l5,-9l5,-10l5,-10l4,-10l5,-11l5,-11l5,-12l5,-12l4,-13l5,-12l5,-13l5,-14l5,-14l4,-13l5,-15l5,-14l5,-14l5,-15l4,-14l5,-15l5,-14l5,-15l5,-14l4,-14l5,-14l5,-14l5,-13l5,-12l4,-13l5,-12l5,-11l5,-10l5,-10l4,-10l5,-8l5,-8l5,-7l5,-6l4,-5l5,-4l5,-3l5,-3l5,-1l4,-1l5,1l5,1l5,3l5,3l4,4l5,5l5,6l5,7l5,8l4,9l5,9l5,10l5,10l5,12l4,11l5,13l5,12l5,14l5,13l4,14l5,14l5,14l5,15l5,14l4,15l5,14l5,15l5,14l5,15l4,14l5,14l5,13l5,14l5,13l4,12l5,13l5,12l5,12l5,11l4,11l5,10l5,10l5,10l5,9l4,9l5,8l5,8l5,8l5,7l4,6" style="fill: none; stroke: red; stroke-width: 2;"></path>
    </g>
   </svg>
   <g>
    <g transform="translate(0,640)">
     <path d="M0,0h960M0,-24V0M24,-12V0M48,-12V0M72,-12V0M96,-12V0M120,-24V0M144,-12V0M168,-12V0M192,-12V0M216,-12V0M240,-24V0M264,-12V0M288,-12V0M312,-12V0M336,-12V0M360,-24V0M384,-12V0M408,-12V0M432,-12V0M456,-12V0M480,-24V0M504,-12V0M528,-12V0M552,-12V0M576,-12V0M600,-24V0M624,-12V0M648,-12V0M672,-12V0M696,-12V0M720,-24V0M744,-12V0M768,-12V0M792,-12V0M816,-12V0M840,-24V0M864,-12V0M888,-12V0M912,-12V0M936,-12V0M960,-24V0" style="stroke: black; stroke-width: 1;"></path>
     <g font-family="Arial" font-size="48" space="preserve" fill="black" text-anchor="middle">
      <text dy=".8em" transform="translate(0,-1)">
       -4
      </text>
      <text dy=".8em" transform="translate(120,-1)">
       -3
      </text>
      <text dy=".8em" transform="translate(240,-1)">
       -2
      </text>
      <text dy=".8em" transform="translate(360,-1)">
       -1
      </text>
      <text dy=".8em" transform="translate(480,-1)">
       0
      </text>
      <text dy=".8em" transform="translate(600,-1)">
       1
      </text>
      <text dy=".8em" transform="translate(720,-1)">
       2
      </text>
      <text dy=".8em" transform="translate(840,-1)">
       3
      </text>
      <text dy=".8em" transform="translate(960,-1)">
       4
      </text>
     </g>
    </g>
    <g>
     <path d="M0,0v640M36,640H0M18,625H0M18,610H0M18,595H0M18,580H0M36,565H0M18,550H0M18,535H0M18,520H0M18,505H0M36,490H0M18,475H0M18,460H0M18,445H0M18,430H0M36,415H0M18,399H0M18,384H0M18,369H0M18,354H0M36,339H0M18,324H0M18,309H0M18,294H0M18,279H0M36,264H0M18,249H0M18,234H0M18,219H0M18,204H0M36,189H0M18,174H0M18,159H0M18,144H0M18,129H0M36,114H0M18,99H0M18,84H0M18,69H0M18,54H0M36,39H0M18,24H0M18,9H0" style="stroke: black; stroke-width: 1;"></path>
     <g font-family="Arial" font-size="48" space="preserve" fill="black" text-anchor="end">
      <text dy=".4em" transform="translate(-4,640)">
       0
      </text>
      <text dy=".4em" transform="translate(-4,565)">
       100
      </text>
      <text dy=".4em" transform="translate(-4,490)">
       200
      </text>
      <text dy=".4em" transform="translate(-4,415)">
       300
      </text>
      <text dy=".4em" transform="translate(-4,339)">
       400
      </text>
      <text dy=".4em" transform="translate(-4,264)">
       500
      </text>
      <text dy=".4em" transform="translate(-4,189)">
       600
      </text>
      <text dy=".4em" transform="translate(-4,114)">
       700
      </text>
      <text dy=".4em" transform="translate(-4,39)">
       800
      </text>
     </g>
    </g>
   </g>
  </g>
  <g transform="translate(120,4)" font-family="Arial" font-size="40" space="preserve">
   <text fill="black" text-anchor="middle" dy=".8em" transform="translate(480)">
    This is the px distribution
   </text>
  </g>
  <g transform="translate(936,52)" font-family="Arial" font-size="23" space="preserve" fill="black">
   <path d="M0,0H240V128H0Z" style="fill: white; stroke: black; stroke-width: 1;"></path>
   <text text-anchor="middle" dy=".4em" transform="translate(120,16)">
    hpx
   </text>
   <text text-anchor="start" dy=".4em" transform="translate(12,48)">
    Entries
   </text>
   <text text-anchor="end" dy=".4em" transform="translate(228,48)">
    25000
   </text>
   <text text-anchor="start" dy=".4em" transform="translate(12,80)">
    Mean
   </text>
   <text text-anchor="end" dy=".4em" transform="translate(228,80)">
    -0.004011
   </text>
   <text text-anchor="start" dy=".4em" transform="translate(12,112)">
    Std Dev
   </text>
   <text text-anchor="end" dy=".4em" transform="translate(228,112)">
    0.9978
   </text>
   <path d="M0,32h240" style="stroke: black; stroke-width: 1;"></path>
  </g>
 </g>
</svg>

<svg xmlns="http://www.w3.org/2000/svg" viewBox="0 0 1200 800" preserveAspectRatio="none" width="1200" height="800">
 <path d="M0,0H1200V800H0Z" style="fill: white;"></path>
 <g>
  <g transform="translate(120,80)">
   <path d="M0,0H960V640H0Z" style="fill: white; stroke: black; stroke-width: 1;"></path>
   <svg x="0" y="0" overflow="hidden" width="960" height="640" viewBox="0 0 960 640">
    <g>
     <path d="M0,639h38v1h10v-1h10v-1h9v-1h19v-1h10v2h10v-3h9v-3h10v2h9v-3h10v-7h10v-1h9v-3h10v-6h9v-8h10v-7h19v-6h10v-22h9v-14h10v-9h10v-14h9v-1h10v-21h9v-24h10v-24h10v-15h9v-35h10v-48h9v-5h10v-23h10v-57h19v-38h9v-48h10v-16h10v-2h9v1h10v-56h9v-29h10v-11h10v-8h9v-40h10v32h9v-36h10v12h10v-3h9v16h10v-23h9v62h10v-5h10v2h9v60h10v15h9v37h10v6h10v56h9v14h10v15h9v35h10v47h10v25h9v20h10v27h9v8h10v7h10v27h9v26h10v37h9v-3h10v21h10v10h9v8h10v10h9v9h10v6h10v-1h9v7h10v1h9v7h10v4h10v-1h9v3h10v3h9v-1h10v1h10v-2h9v2h10v2h9v1h10v-2h19v1h10v1h19" style="stroke-linejoin: miter; stroke: #00009a; stroke-width: 1; fill: none;"></path>
    </g>
    <g>
     <path d="M240,559L245,553L250,545L255,538L260,530L264,522L269,513L274,504L279,494L284,484L288,474L293,463L298,452L303,440L308,428L312,415L317,403L322,390L327,376L332,362L336,349L341,334L346,320L351,306L356,291L360,277L365,262L370,248L375,233L380,219L384,205L389,191L394,177L399,164L404,152L408,139L413,127L418,116L423,106L428,96L432,86L437,78L442,70L447,63L452,57L456,52L461,48L466,45L471,42L476,41L480,40L485,41L490,42L495,45L500,48L504,52L509,57L514,63L519,70L524,78L528,87L533,96L538,106L543,116L548,128L552,139L557,152L562,164L567,178L572,191L576,205L581,219L586,233L591,248L596,262L600,277L605,291L610,306L615,320L620,335L624,349L629,363L634,376L639,390L644,403L648,415L653,428L658,440L663,452L668,463L672,474L677,484L682,494L687,504L692,513L696,522L701,530L706,538L711,546L716,553L720,559" style="fill: none; stroke: red; stroke-width: 2;"></path>
    </g>
   </svg>
   <g>
    <g transform="translate(0,640)">
     <path d="M0,0h960M0,-24V0M24,-12V0M48,-12V0M72,-12V0M96,-12V0M120,-24V0M144,-12V0M168,-12V0M192,-12V0M216,-12V0M240,-24V0M264,-12V0M288,-12V0M312,-12V0M336,-12V0M360,-24V0M384,-12V0M408,-12V0M432,-12V0M456,-12V0M480,-24V0M504,-12V0M528,-12V0M552,-12V0M576,-12V0M600,-24V0M624,-12V0M648,-12V0M672,-12V0M696,-12V0M720,-24V0M744,-12V0M768,-12V0M792,-12V0M816,-12V0M840,-24V0M864,-12V0M888,-12V0M912,-12V0M936,-12V0M960,-24V0" style="stroke: black; stroke-width: 1;"></path>
     <g font-family="Arial" font-size="48" space="preserve" fill="black" text-anchor="middle">
      <text dy=".8em" transform="translate(0,-1)">
       -4
      </text>
      <text dy=".8em" transform="translate(120,-1)">
       -3
      </text>
      <text dy=".8em" transform="translate(240,-1)">
       -2
      </text>
      <text dy=".8em" transform="translate(360,-1)">
       -1
      </text>
      <text dy=".8em" transform="translate(480,-1)">
       0
      </text>
      <text dy=".8em" transform="translate(600,-1)">
       1
      </text>
      <text dy=".8em" transform="translate(720,-1)">
       2
      </text>
      <text dy=".8em" transform="translate(840,-1)">
       3
      </text>
      <text dy=".8em" transform="translate(960,-1)">
       4
      </text>
     </g>
    </g>
    <g>
     <path d="M0,0v640M36,640H0M18,625H0M18,610H0M18,595H0M18,580H0M36,565H0M18,550H0M18,535H0M18,520H0M18,505H0M36,490H0M18,475H0M18,460H0M18,445H0M18,430H0M36,415H0M18,399H0M18,384H0M18,369H0M18,354H0M36,339H0M18,324H0M18,309H0M18,294H0M18,279H0M36,264H0M18,249H0M18,234H0M18,219H0M18,204H0M36,189H0M18,174H0M18,159H0M18,144H0M18,129H0M36,114H0M18,99H0M18,84H0M18,69H0M18,54H0M36,39H0M18,24H0M18,9H0" style="stroke: black; stroke-width: 1;"></path>
     <g font-family="Arial" font-size="48" space="preserve" fill="black" text-anchor="end">
      <text dy=".4em" transform="translate(-4,640)">
       0
      </text>
      <text dy=".4em" transform="translate(-4,565)">
       100
      </text>
      <text dy=".4em" transform="translate(-4,490)">
       200
      </text>
      <text dy=".4em" transform="translate(-4,415)">
       300
      </text>
      <text dy=".4em" transform="translate(-4,339)">
       400
      </text>
      <text dy=".4em" transform="translate(-4,264)">
       500
      </text>
      <text dy=".4em" transform="translate(-4,189)">
       600
      </text>
      <text dy=".4em" transform="translate(-4,114)">
       700
      </text>
      <text dy=".4em" transform="translate(-4,39)">
       800
      </text>
     </g>
    </g>
   </g>
  </g>
  <g transform="translate(120,4)" font-family="Arial" font-size="40" space="preserve">
   <text fill="black" text-anchor="middle" dy=".8em" transform="translate(480)">
    This is the px distribution
   </text>
  </g>
  <g transform="translate(936,52)" font-family="Arial" font-size="23" space="preserve" fill="black">
   <path d="M0,0H240V128H0Z" style="fill: white; stroke: black; stroke-width: 1;"></path>
   <text text-anchor="middle" dy=".4em" transform="translate(120,16)">
    hpx
   </text>
   <text text-anchor="start" dy=".4em" transform="translate(12,48)">
    Entries
   </text>
   <text text-anchor="end" dy=".4em" transform="translate(228,48)">
    25000
   </text>
   <text text-anchor="start" dy=".4em" transform="translate(12,80)">
    Mean
   </text>
   <text text-anchor="end" dy=".4em" transform="translate(228,80)">
    -0.004011
   </text>
   <text text-anchor="start" dy=".4em" transform="translate(12,112)">
    Std Dev
   </text>
   <text text-anchor="end" dy=".4em" transform="translate(228,112)">
    0.9978
   </text>
   <path d="M0,32h240" style="stroke: black; stroke-width: 1;"></path>
  </g>
 </g>
</svg>
